assets/svg/eye-blocked.svg

<!-- Generated by IcoMoon.io -->
<svg version="1.1" xmlns="http://www.w3.org/2000/svg" width="32" height="32" viewBox="0 0 32 32">
<title>eye-blocked</title>
<path d="M29.561 0.439c-0.586-0.586-1.535-0.586-2.121 0l-6.318 6.318c-1.623-0.492-3.342-0.757-5.122-0.757-6.979 0-13.028 4.064-16 10 1.285 2.566 3.145 4.782 5.407 6.472l-4.968 4.968c-0.586 0.586-0.586 1.535 0 2.121 0.293 0.293 0.677 0.439 1.061 0.439s0.768-0.146 1.061-0.439l27-27c0.586-0.586 0.586-1.536 0-2.121zM13 10c1.32 0 2.44 0.853 2.841 2.037l-3.804 3.804c-1.184-0.401-2.037-1.521-2.037-2.841 0-1.657 1.343-3 3-3zM3.441 16c1.197-1.891 2.79-3.498 4.67-4.697 0.122-0.078 0.246-0.154 0.371-0.228-0.311 0.854-0.482 1.776-0.482 2.737 0 1.715 0.54 3.304 1.459 4.607l-1.904 1.904c-1.639-1.151-3.038-2.621-4.114-4.323z"></path>
<path d="M24 13.813c0-0.849-0.133-1.667-0.378-2.434l-10.056 10.056c0.768 0.245 1.586 0.378 2.435 0.378 4.418 0 8-3.582 8-8z"></path>
<path d="M25.938 9.062l-2.168 2.168c0.040 0.025 0.079 0.049 0.118 0.074 1.88 1.199 3.473 2.805 4.67 4.697-1.197 1.891-2.79 3.498-4.67 4.697-2.362 1.507-5.090 2.303-7.889 2.303-1.208 0-2.403-0.149-3.561-0.439l-2.403 2.403c1.866 0.671 3.873 1.036 5.964 1.036 6.978 0 13.027-4.064 16-10-1.407-2.81-3.504-5.2-6.062-6.938z"></path>
</svg>

<svg xmlns="http://www.w3.org/2000/svg" viewBox="0 0 32 32"><path d="M29.561.439a1.5 1.5 0 00-2.121 0l-6.318 6.318A17.626 17.626 0 0016 6C9.021 6 2.972 10.064 0 16a18.323 18.323 0 005.407 6.472L.439 27.44a1.5 1.5 0 102.122 2.121l27-27a1.5 1.5 0 000-2.121zM13 10a3 3 0 012.841 2.037l-3.804 3.804A3 3 0 0113 10zm-9.559 6a15.223 15.223 0 015.041-4.925A7.985 7.985 0 008 13.812c0 1.715.54 3.304 1.459 4.607l-1.904 1.904A15.219 15.219 0 013.441 16zM24 13.813c0-.849-.133-1.667-.378-2.434L13.566 21.435a8 8 0 0010.435-7.622z"/><path d="M25.938 9.062L23.77 11.23l.118.074a15.212 15.212 0 014.67 4.697 15.223 15.223 0 01-4.67 4.697 14.642 14.642 0 01-11.45 1.864l-2.403 2.403a17.587 17.587 0 005.964 1.036c6.978 0 13.027-4.064 16-10a18.292 18.292 0 00-6.062-6.938z"/></svg>
